X: 062
T: Mair the Morn
R: slip-jig
M: 9/8
L: 1/8
Z: 2012 John Chambers <jc:trillian.mit.edu>
B: J. Anderson "Budget of Strathspeys, Reels and Country Dances" (Early 1800s) p.6 #2
F: http://imslp.org/wiki/Anderson%27s_Budget_of_Strathspeys,_Reels_and_Country_Dances_(Various)
K: D
|:\
fgf fed ecA | fgf fed e2a | fgf fed ecA | ABA ABc d2d :|
afd afd efg | afd fed ecA | afd afd efg | dfa ABc d2d |
afd afd efg | afd fed ecA | dfd ede fdB | ABA ABc d2d |]

%%sep 2 1 500
%%sep 1 1 500

